www/assets/icons/perm_camera_mic.svg

<svg xmlns="http://www.w3.org/2000/svg" width="24" height="24" viewBox="0 0 24 24" fill='currentColor'><path d="M20 5h-3.17L15 3H9L7.17 5H4c-1.1 0-2 .9-2 2v12c0 1.1.9 2 2 2h7v-2.09c-2.83-.48-5-2.94-5-5.91h2c0 2.21 1.79 4 4 4s4-1.79 4-4h2c0 2.97-2.17 5.43-5 5.91V21h7c1.1 0 2-.9 2-2V7c0-1.1-.9-2-2-2m-6 8c0 1.1-.9 2-2 2s-2-.9-2-2V9c0-1.1.9-2 2-2s2 .9 2 2z"/></svg>

<svg width="24" height="24" viewBox="0 0 24 24" xmlns="http://www.w3.org/2000/svg" fill='currentColor'><path d="M20 5H16.83L15 3H9L7.17 5H4C2.9 5 2 5.9 2 7V19C2 20.1 2.9 21 4 21H11V18.91C8.17 18.43 6 15.97 6 13H8C8 15.21 9.79 17 12 17C14.21 17 16 15.21 16 13H18C18 15.97 15.83 18.43 13 18.91V21H20C21.1 21 22 20.1 22 19V7C22 5.9 21.1 5 20 5ZM14 13C14 14.1 13.1 15 12 15C10.9 15 10 14.1 10 13V9C10 7.9 10.9 7 12 7C13.1 7 14 7.9 14 9V13Z"/></svg>
